src/img/linkedin-roxo.svg

<svg width="19" height="19" viewBox="0 0 19 19" fill="none" xmlns="http://www.w3.org/2000/svg">
<path d="M3.98741 2.50089C3.98714 3.03129 3.77684 3.53987 3.40276 3.91473C3.02868 4.2896 2.52147 4.50004 1.99271 4.49978C1.46394 4.49951 0.956943 4.28856 0.583238 3.91332C0.209533 3.53808 -0.000264132 3.02929 2.49573e-07 2.49889C0.000264631 1.96849 0.210569 1.45991 0.584648 1.08505C0.958727 0.710183 1.46594 0.499735 1.9947 0.5C2.52346 0.500265 3.03047 0.711222 3.40417 1.08646C3.77788 1.4617 3.98767 1.97049 3.98741 2.50089ZM4.04722 5.9807H0.0598113V18.5H4.04722V5.9807ZM10.3473 5.9807H6.37985V18.5H10.3075V11.9304C10.3075 8.27057 15.0624 7.93059 15.0624 11.9304V18.5H19V10.5704C19 4.40078 11.9622 4.63077 10.3075 7.6606L10.3473 5.9807Z" fill="#342840"/>
</svg>

<svg width="19" height="19" fill="none" xmlns="http://www.w3.org/2000/svg"><path d="M3.987 2.5c0 .531-.21 1.04-.584 1.415a1.99 1.99 0 0 1-2.82-.002 2.003 2.003 0 0 1 .002-2.828 1.99 1.99 0 0 1 2.82.001c.373.376.583.884.582 1.415zm.06 3.48H.06V18.5h3.987V5.98zm6.3 0H6.38V18.5h3.927v-6.57c0-3.66 4.755-4 4.755 0v6.57H19v-7.93c0-6.17-7.038-5.94-8.693-2.91l.04-1.68z" fill="#342840"/></svg>
